icon-themes/sifr_svg/cmd/32/datadatapilotrun.svg

<svg viewBox="0 0 32 32" xmlns="http://www.w3.org/2000/svg"><path d="m5 3c-1.108 0-2 .892-2 2v1c0 1.108.892 2 2 2h1c1.108 0 2-.892 2-2v-1c0-1.108-.892-2-2-2zm8 0c-1.108 0-2 .892-2 2v1c0 1.108.892 2 2 2h14c1.108 0 2-.892 2-2v-1c0-1.108-.892-2-2-2zm11 7-3.71875 4.25c-.19095.19768-.28125.44055-.28125.75v.585938.414062h1c.25689 0 .52846-.12983.71875-.3125l1.28125-1.509766v6.322266c0 .663878-.262745 1.300343-.732422 1.769531s-1.105653.731161-1.769531.730469h-5.320313l1.509766-1.28125c.18267-.19029.3125-.46186.3125-.71875v-1h-.414062-.585938c-.30945 0-.55232.0903-.75.28125l-4.25 3.71875c1.41667 1.073 2.83333 2.64574 4.25 3.71875.19768.19095.44055.28125.75.28125h.585938.414062v-1c0-.25689-.12983-.52846-.3125-.71875l-1.509766-1.28125h5.554688a1.0001 1.0001 0 0 0 .339844-.056641c.980132-.126386 1.900595-.553676 2.607422-1.259765.607517-.606852 1.015102-1.372393 1.201171-2.197266a1.0001 1.0001 0 0 0 .119141-.486328v-.5-6.322266l1.28125 1.509766c.19029.18267.46186.3125.71875.3125h1v-.414062-.585938c0-.30945-.0903-.55232-.28125-.75-1.07301-1.41667-2.64575-2.83333-3.71875-4.25zm-19 1c-1.108 0-2 .892-2 2v14c0 1.108.892 2 2 2h1c1.108 0 2-.892 2-2v-14c0-1.108-.892-2-2-2z" fill="#555753"/></svg>

<svg xmlns="http://www.w3.org/2000/svg" viewBox="0 0 32 32">
 <path
     style="fill:#555753"
     d="M 5 3 C 3.892 3 3 3.892 3 5 L 3 6 C 3 7.108 3.892 8 5 8 L 6 8 C 7.108 8 8 7.108 8 6 L 8 5 C 8 3.892 7.108 3 6 3 L 5 3 z M 13 3 C 11.892 3 11 3.892 11 5 L 11 6 C 11 7.108 11.892 8 13 8 L 27 8 C 28.108 8 29 7.108 29 6 L 29 5 C 29 3.892 28.108 3 27 3 L 13 3 z M 24 10 L 20.28125 14.25 C 20.0903 14.44768 20 14.69055 20 15 L 20 15.585938 L 20 16 L 21 16 C 21.25689 16 21.52846 15.87017 21.71875 15.6875 L 23 14.177734 L 23 20.5 C 23 21.163878 22.737255 21.800343 22.267578 22.269531 C 21.797901 22.738719 21.161925 23.000692 20.498047 23 L 15.177734 23 L 16.6875 21.71875 C 16.87017 21.52846 17 21.25689 17 21 L 17 20 L 16.585938 20 L 16 20 C 15.69055 20 15.44768 20.0903 15.25 20.28125 L 11 24 C 12.41667 25.073 13.83333 26.64574 15.25 27.71875 C 15.44768 27.9097 15.69055 28 16 28 L 16.585938 28 L 17 28 L 17 27 C 17 26.74311 16.87017 26.47154 16.6875 26.28125 L 15.177734 25 L 20.732422 25 A 1.0001 1.0001 0 0 0 21.072266 24.943359 C 22.052398 24.816973 22.972861 24.389683 23.679688 23.683594 C 24.287205 23.076742 24.69479 22.311201 24.880859 21.486328 A 1.0001 1.0001 0 0 0 25 21 L 25 20.5 L 25 14.177734 L 26.28125 15.6875 C 26.47154 15.87017 26.74311 16 27 16 L 28 16 L 28 15.585938 L 28 15 C 28 14.69055 27.9097 14.44768 27.71875 14.25 C 26.64574 12.83333 25.073 11.41667 24 10 z M 5 11 C 3.892 11 3 11.892 3 13 L 3 27 C 3 28.108 3.892 29 5 29 L 6 29 C 7.108 29 8 28.108 8 27 L 8 13 C 8 11.892 7.108 11 6 11 L 5 11 z "
     />
 </svg>
